X: 153
T: Skye Air, A
R:Slow Air
S:MacDonald - Skye Collection
N:pg.159
M:C
L:1/8
Q:1/4=80
K:E Minor
D<d B>A Bd e2|g>d e2 B>A G2|d<d B>A B>d e2|~G2 (B/A/)G/F/ BE E2|
d<d B>A B>d e2|g>d {d}e2 B>A G2|A>B g2 (g/f/e/^d/) {d}e2|G2 (B/A/)(G/F/) BE E2:|
|:[G2e2] [Ge][F^d] [G2e2] [Ge][F^d]|e>f g2 B>A G2|[A2d2] dB (d2 e2)|
G2 (B/A/)G/F/ BE E2|{D}d2 {e}d>B {D}d2 d>B|(d2 e2) B>A G2|
AB {B}g2 (g/f/)(e/^d/) {d} e2|G2 (B/A/)(G/F/) BE E2:|


